app/assets/images/icons/globe.svg

<svg width="40" height="40" viewBox="0 0 40 40" fill="none" xmlns="http://www.w3.org/2000/svg">
<path d="M20 0C31.046 0 40 8.954 40 20C40 31.046 31.046 40 20 40C8.954 40 0 31.046 0 20C0 8.954 8.954 0 20 0ZM24 22.8L20.872 25.302C20.7622 25.3899 20.6722 25.4999 20.6078 25.625C20.5434 25.75 20.5062 25.8872 20.4984 26.0277C20.4907 26.1681 20.5127 26.3086 20.5629 26.4399C20.6131 26.5713 20.6905 26.6906 20.79 26.79L23.268 29.268C23.7478 29.7484 24.0975 30.3431 24.284 30.996L24.634 32.222C24.7791 32.7364 25.0369 33.212 25.3888 33.6143C25.7406 34.0166 26.1776 34.3356 26.668 34.548C28.5811 33.669 30.3025 32.4219 31.734 30.878L31.266 27.124C31.1841 26.4709 30.9423 25.8481 30.562 25.3108C30.1817 24.7735 29.6747 24.3384 29.086 24.044L26.146 22.572C25.8039 22.4008 25.42 22.3313 25.0396 22.3717C24.6592 22.4121 24.2985 22.5608 24 22.8ZM20 4C17.5521 3.99791 15.1365 4.55845 12.9396 5.63832C10.7428 6.71818 8.82351 8.2885 7.33 10.228L7 10.67V14.04C6.99975 15.261 7.37202 16.453 8.0671 17.4569C8.76218 18.4607 9.74699 19.2286 10.89 19.658L11.246 19.778L13.826 20.568C16.572 21.408 19.246 19.174 18.98 16.376L18.942 16.086L18.592 13.988C18.5147 13.5233 18.6039 13.0461 18.8439 12.6407C19.0839 12.2353 19.4593 11.9277 19.904 11.772L20.12 11.712L21.344 11.432C22.0385 11.2733 22.6941 10.977 23.2722 10.5608C23.8504 10.1445 24.3392 9.61666 24.71 9.00838C25.0808 8.40009 25.326 7.7237 25.4311 7.01911C25.5362 6.31452 25.4991 5.59602 25.322 4.906C23.6122 4.30425 21.8126 3.99787 20 4Z" fill="#4A2D24"/>
</svg>

<svg xmlns="http://www.w3.org/2000/svg" width="40" height="40" fill="none"><path fill="#4A2D24" d="M20 0c11.046 0 20 8.954 20 20s-8.954 20-20 20S0 31.046 0 20 8.954 0 20 0m4 22.8-3.128 2.502a1 1 0 0 0-.082 1.488l2.478 2.478a4 4 0 0 1 1.016 1.728l.35 1.226a3.6 3.6 0 0 0 2.034 2.326 16 16 0 0 0 5.066-3.67l-.468-3.754a4 4 0 0 0-2.18-3.08l-2.94-1.472A2 2 0 0 0 24 22.8M20 4a15.97 15.97 0 0 0-12.67 6.228L7 10.67v3.37a6 6 0 0 0 3.89 5.618l.356.12 2.58.79c2.746.84 5.42-1.394 5.154-4.192l-.038-.29-.35-2.098a2 2 0 0 1 1.312-2.216l.216-.06 1.224-.28a5.334 5.334 0 0 0 3.978-6.526A16 16 0 0 0 20 4"/></svg>
